X:1
T:Chinese Breakdown
L:1/4
M:C|
I:linebreak $
K:D
V:1 treble
 B/c/ |"D" d A B A | F2 F A/B/ | d A B A |"A7" G4 | c A B A | c3/2 d/ c B | A c B A | "D"F3 A/B/ |$
 d A B A |  F3/2 G/ F E | D D E F |"G" G4 |"A7" e3/2 f/ e d | c3/2 d/ c B | A A B c |"D" d3 ||$
 A |"D" d f2 A | d f2 A |  d f e d |"A7" c4 | a3/2 b/ a f | g3/2 a/ g f |"D" e ^d e =f |$
 ^f3 A | d f2 A | d f2 A | d f e d |"G" B4 |"A7" e3/2 f/ e d | c3/2 d/ c B |"D" A A B c | d3 |]
